X:251
T:Alleluia, Alleluia! Hearts to Heaven and Voices Raise
%%stretchlast false
M:4/4
L:1/4
K:F clef=C1
"^I"[Fca] [Fca] "^ii"[FGcb] "^I"[FAcc'] | "^iii¹"[CAcc'] "^ii"[CGdb]/ "^V7"[CGeb]/ "^I²"[CFfa] "^V7³"[B,Ecg] | "^I¹"[A,Fcf] [A,Acf] "^vii°¹"[G,Beg] "^I"[F,cfa] | "^I²"[Ccfa]3/2 "^V"[Cceg]/ [Cceg]2 | "^I"[Fcfa] [Fca] "^IV²"[FBdb] "^I7"[FA_ec'] | [B,F_ec'] "^ii¹"[B,Gdb] "^iii"[B,Aca] "^ii¹"[B,Bdg] | "^I²"[CAcf] [CAcf] "^V7"[CBeg] "^I²"[Ccfa] | "^V7"[CBeg]3/2 "^I"[FAf]/ [FAf]2 | "^V"[Cceg] [CEcg] "^I²"[CFca] [CAf] | "^V7"[CBeg] "^I²"[CAfa]/ "^V7"[CGeb]/ "^I²"[CFfa] [CAf] | "^V7"[CBeg] "^iii¹"[CAea]/ "^V7"[CGeb]/ "^III¹"[_DAea] "^V/vi"[A,A_dg] | "^vi"[DAdf]/ "^vi7"[DAcf]/ "^II"[G,G=Bg]/ "^V/V"[G,F=Bg]/ "^V"[CEc]2 | "^I"[Fca] [Fca] "^IV²"[FBdb] "^I7"[FA_ec'] | [B,F_ec'] "^ii¹"[B,Gdb] "^iii"[B,Aca] "^ii¹"[B,Bdg] | "^I²"[CAcf] [CAcf] "^V7"[CBeg] "^I²"[Ccfa] | "^V7"[CBeg]3/2 "^I"[FAf]/ [FAf]2 |]
